!!!!SEGMENT: pl-cz--iii-555--001-009_raszek-waclaw--requiem-agnus-dei.krn
!!!cenid: 17xx:1088
!!!COM: Raszek, Wacław
!!!COM-rismid: pe30020314
!!!CDT: <1848->1848
!!!CNT:
!!!OPR: Requiem
!!!OTL: Agnus Dei
!!!OMV: 009
!!!PDT:
!!!AGN: Sacred; Requiem
!!!SMS-siglum: PL-CZ
!!!SMS-shelfmark: III-555
!!!SMS-shelfwork: 001-009 M
!!!SMS-variant:
!!!SMS-altvar:
!!!NIFC-rismid: 300001055
!!!system-decoration: [(s1,s2,s3)][(s4,s5)][(s6,s7,s8,s9)]
!!!AIN: 1 alto 2 clars 4 empty 1 tenor 1 vox
!!!key:
**kern	**text	**kern	**text	**kern	**text	**kern	**text	**kern	**dynam	**kern	**dynam	**kern	**kern	**dynam	**kern	**dynam
*part9	*part9	*part8	*part8	*part7	*part7	*part6	*part6	*part5	*part5	*part4	*part4	*part3	*part2	*part2	*part1	*part1
*staff9	*staff9	*staff8	*staff8	*staff7	*staff7	*staff6	*staff6	*staff5	*	*staff4	*	*staff3	*staff2	*	*staff1	*
*Iempty	*	*Itenor	*	*Ialto	*	*Ivox	*	*Iempty	*	*Iempty	*	*Iempty	*Iclars	*	*Iclars	*
*I"Baſso.	*	*I"Tenore.	*	*I"Alto	*	*I"Canto	*	*I"Cornu IIdo in Dis.	*	*I"Corno Imo in dis	*	*I"Fagoto vel Violone.	*I"Clarinetto 2do in B.	*	*I"Clarinetto Imo in B.	*
*I'B	*	*I'T	*	*I'A	*	*I'S	*	*I'Cor II in D#	*	*I'Cor I in D#	*	*I'Fag	*I'Cl II in B♭	*	*I'Cl I in B♭	*
*clefF4	*	*clefC4	*	*clefC3	*	*clefC1	*	*clefG2	*	*clefG2	*	*clefF4	*clefG2	*	*clefG2	*
*	*	*ITrd0c0	*	*	*	*	*	*ITrd5c9	*	*ITrd5c9	*	*	*ITrd1c2	*	*ITrd1c2	*
*k[b-e-a-]	*	*k[b-e-a-]	*	*k[b-e-a-]	*	*k[b-e-a-]	*	*k[b-e-a-]	*	*k[b-e-a-]	*	*k[b-e-a-]	*k[b-e-]	*	*k[b-e-a-]	*
*E-:	*	*	*	*E-:	*	*E-:	*	*	*	*	*	*E-:	*	*	*	*
*M2/2	*	*M2/2	*	*M2/2	*	*M2/2	*	*M2/2	*	*M2/2	*	*M2/2	*M2/2	*	*M2/2	*
*met(c|)	*	*met(c|)	*	*met(c|)	*	*met(c|)	*	*met(c|)	*	*met(c|)	*	*met(c|)	*met(c|)	*	*met(c|)	*
*>[A,A,B]	*	*>[A,A,B]	*	*>[A,A,B]	*	*>[A,A,B]	*	*>[A,A,B]	*	*>[A,A,B]	*	*>[A,A,B]	*>[A,A,B]	*	*>[A,A,B]	*
=1	=1	=1	=1	=1	=1	=1	=1	=1	=1	=1	=1	=1	=1	=1	=1	=1
*>A	*	*>A	*	*>A	*	*>A	*	*>A	*	*>A	*	*>A	*>A	*	*>A	*
*2\right	*	*2\right	*	*2\right	*	*2\right	*	*2\right	*	*2\right	*	*2\right	*	*	*2\right	*
!	!	!	!	!	!	!	!	!	!	!	!	!	!LO:TX:t=P:problem=all\right&colon; global	!	!	!
!	!	!	!	!	!	!	!	!	!	!	!	!	!LO:TX:t=P:problem=brakujący fragment	!	!LO:TX:t=P:problem=w źrodle znak repetycji na początku taktu	!
!LO:TX:t=P:problem=kolejność znaków&colon; E- A- BB-, A- zamiast AA-	!	!LO:TX:t=P:problem=kolejność znaków&colon; E- B- A-, E- zamiast e-	!	!	!	!	!	!	!	!	!	!LO:TX:t=P:problem=kolejność znaków&colon; E- A- BB-, A- zamiast AA-	!LO:TX:t=P:problem=brak znaku przy kluczu	!	!	!
!LO:TX:a:Bi:t=adagio	!	!LO:TX:a:Bi:t=adagio	!	!LO:TX:a:Bi:t=Adagio	!	!LO:TX:a:Bi:t=adagio	!	!LO:TX:a:Bi:t=Adagio.	!	!LO:TX:a:Bi:t=Adagio	!	!LO:TX:a:Bi:t=adagio	!LO:TX:a:Bi:t=Adagio	!	!LO:TX:a:Bi:t=adagio	!
!	!	!	!	!	!	!	!	!	!	!LO:SIC:v:s=2e\	!	!	!	!	!	!
2.E-\	A-	2B-\	A-	2g\	A-	2ee-\	A-	2A-/	.	2e-\	.	2E-\	1ryy	.	2ee-\	.
.	.	4d\	-gnus	2a-\	-gnus	4dd\	-gnus	2r	.	2r	.	2r	.	.	2r	.
4E-\	-gnus	4c\	.	.	.	4cc\	.	.	.	.	.	.	.	.	.	.
=2	=2	=2	=2	=2	=2	=2	=2	=2	=2	=2	=2	=2	=2	=2	=2	=2
!	!	!	!	!	!	!	!	!	!	!LO:TX:b:t=4.	!	!LO:TX:a:t=4	!LO:TX:a:t=4	!	!LO:TX:a:t=4	!
2E-\	De-	2e-\	De-	2a-\	De-	4.cc\	De-	00r	.	00r	.	00r	00r	.	00r	.
.	.	.	.	.	.	16b-\LL	-i	.	.	.	.	.	.	.	.	.
.	.	.	.	.	.	16cc\JJ	.	.	.	.	.	.	.	.	.	.
4E-\	-i	4e-\	-i	4g\	-i	4b-\	qui	.	.	.	.	.	.	.	.	.
4E-\	qui	4B-\	qui	4g\	qui	4b-\	tol-	.	.	.	.	.	.	.	.	.
=3	=3	=3	=3	=3	=3	=3	=3	=3	=3	=3	=3	=3	=3	=3	=3	=3
2E-\	qui	2c\	tol-	2a-\	tol-	2cc\	-lis	.	.	.	.	.	.	.	.	.
4E-\	.	4c\	-lis	4a-\	-lis	4cc\	pec-	.	.	.	.	.	.	.	.	.
4E-\	tol-	4B-\	pec-	4f\	pec-	4dd\	-ca-	.	.	.	.	.	.	.	.	.
=4	=4	=4	=4	=4	=4	=4	=4	=4	=4	=4	=4	=4	=4	=4	=4	=4
2E-\	-lis	2.B-\	-ca-	2g\	-ca-	2ee-\	-ta	.	.	.	.	.	.	.	.	.
2E-\	pec-	.	.	8a-\L	-ta	8ff\L	.	.	.	.	.	.	.	.	.	.
.	.	.	.	8g\J	.	8ee-\J	.	.	.	.	.	.	.	.	.	.
.	.	4B-\	-ta	8f\L	.	8dd\L	.	.	.	.	.	.	.	.	.	.
.	.	.	.	8g\J	.	8ee-\J	.	.	.	.	.	.	.	.	.	.
=5	=5	=5	=5	=5	=5	=5	=5	=5	=5	=5	=5	=5	=5	=5	=5	=5
2B-\	-ca-	2B-\	Mun-	2g\	mun-	2ee-\	mun-	.	.	.	.	.	.	.	.	.
2BB-/	-ta	2B-\	-di	2f\	-di	2dd\	-di	.	.	.	.	.	.	.	.	.
=6	=6	=6	=6	=6	=6	=6	=6	=6	=6	=6	=6	=6	=6	=6	=6	=6
*	*	*	*	*	*	*	*	*	*	*	*	*	*2\right	*	*	*
!LO:TX:a:t=5	!	!LO:TX:a:t=5	!	!LO:TX:a:t=5	!	!LO:TX:a:t=5	!	!	!LO:DY:a	!	!LO:DY:a	!	!	!	!	!
00r	.	00r	.	00r	.	00r	.	1BB-	p	1B-	p	4BB-/	4dd\	.	4ff\	.
.	.	.	.	.	.	.	.	.	.	.	.	4r	8b-\L	.	8dd\L	.
.	.	.	.	.	.	.	.	.	.	.	.	.	8cc\J	.	8ee-\J	.
.	.	.	.	.	.	.	.	.	.	.	.	2r	8dd\L	.	8ff\L	.
.	.	.	.	.	.	.	.	.	.	.	.	.	8ee-\	.	8gg\	.
.	.	.	.	.	.	.	.	.	.	.	.	.	8dd\	.	8ff\	.
.	.	.	.	.	.	.	.	.	.	.	.	.	8ee-\J	.	8gg\J	.
=7	=7	=7	=7	=7	=7	=7	=7	=7	=7	=7	=7	=7	=7	=7	=7	=7
.	.	.	.	.	.	.	.	1BB-	.	1B-	.	4BB-/	4dd\	.	4ff\	.
.	.	.	.	.	.	.	.	.	.	.	.	4r	8dd\L	.	8ff\L	.
.	.	.	.	.	.	.	.	.	.	.	.	.	8ee-\J	.	8gg\J	.
.	.	.	.	.	.	.	.	.	.	.	.	4r	4ff\	.	4aa-\	.
.	.	.	.	.	.	.	.	.	.	.	.	4BBB-/	4ff\	.	4aa-\	.
=8	=8	=8	=8	=8	=8	=8	=8	=8	=8	=8	=8	=8	=8	=8	=8	=8
.	.	.	.	.	.	.	.	1E-	.	1e-	.	4EE-/	4ee-\	.	4gg\	.
.	.	.	.	.	.	.	.	.	.	.	.	4r	8ee-\L	.	8gg\L	.
.	.	.	.	.	.	.	.	.	.	.	.	.	8ff\J	.	8aa-\J	.
.	.	.	.	.	.	.	.	.	.	.	.	2r	4gg\	.	4bb-\	.
.	.	.	.	.	.	.	.	.	.	.	.	.	4gg\	.	4bb-\	.
=9	=9	=9	=9	=9	=9	=9	=9	=9	=9	=9	=9	=9	=9	=9	=9	=9
.	.	.	.	.	.	.	.	2E-/	.	2e-\	.	4E-\	4.gg\	.	4.bb-\	.
.	.	.	.	.	.	.	.	.	.	.	.	4r	.	.	.	.
.	.	.	.	.	.	.	.	.	.	.	.	.	8ee-\	.	8gg\	.
.	.	.	.	.	.	.	.	8r	.	8r	.	4EE-/	8gg\L	.	8bb-\L	.
.	.	.	.	.	.	.	.	8g\L	.	8b-\L	.	.	8b-\	.	8gg\	.
!	!	!	!	!	!	!	!	!	!	!	!	!	!LO:SIC:v:s=8b-	!	!	!
.	.	.	.	.	.	.	.	8f\	.	8a-\	.	4E-\	8a\	.	8ff\	.
.	.	.	.	.	.	.	.	8e-\J	.	8g\J	.	.	8g\J	.	8ee-\J	.
=10	=10	=10	=10	=10	=10	=10	=10	=10	=10	=10	=10	=10	=10	=10	=10	=10
1r	.	1r	.	1r	.	1r	.	4B-/	.	4f\	.	4BB-/	4f/	.	4dd\	.
.	.	.	.	.	.	.	.	4B-/	.	4f\	.	4B-\	4dd\	.	4bb-\	.
!	!	!	!	!	!	!	!	!	!	!	!	!	!	!	!	!
.	.	.	.	.	.	.	.	2B-/	.	2f\	.	2BB-/	2dd\	.	2bb-\	.
=11	=11	=11	=11	=11	=11	=11	=11	=11	=11	=11	=11	=11	=11	=11	=11	=11
2.BB-/	Do-	2.d\	Do-	2.f\	Do-	2.a-X\	Do-	4r	.	4r	.	4BB-/	4cc\	.	4ff\	f
!	!	!	!	!	!	!	!	!	!LO:DY:a	!	!LO:DY:a	!	!	!	!	!
.	.	.	.	.	.	.	.	4B-/	p	4f\	p	4BB-/	4f/	.	4a-\	p
.	.	.	.	.	.	.	.	4B-/	.	4f\	.	4BB-/	4f/	.	4a-\	.
4BB-/	-na	4d\	-na	4f\	-na	4a-\	-na	4B-/	.	4f\	.	4BB-/	4f/	.	4a-\	.
=12	=12	=12	=12	=12	=12	=12	=12	=12	=12	=12	=12	=12	=12	=12	=12	=12
!	!	!	!	!	!	!	!	!	!	!	!	!	!	!	!	!LO:DY:a
2E-\	e-	2e-\	e-	2e-\	e-	2g\	E-	4r	.	4r	.	4EE-/	4g/	.	4ee-\	f
.	.	.	.	.	.	.	.	4e-\	.	4g\	.	4E-\	4e-/	.	4g\	p
2E-\	-js	2e-\	-js	2e-\	-js	2g\	-js	4e-\	.	4g\	.	4E-\	4e-/	.	4g\	.
.	.	.	.	.	.	.	.	4e-\	.	4g\	.	4E-\	4e-/	.	4g\	.
=13	=13	=13	=13	=13	=13	=13	=13	=13	=13	=13	=13	=13	=13	=13	=13	=13
2.C/	Re-	2.en\	Re-	2.g\	Re-	2.b-\	Re-	4r	.	4r	.	4CC/	4b-\	.	4gg\	f
.	.	.	.	.	.	.	.	4G/	.	4g\	.	4C/	4g/	.	4b-\	p
.	.	.	.	.	.	.	.	4G/	.	4g\	.	4C/	4g/	.	4b-\	.
4C/	-qui-	4e\	-qui-	4g\	-qui-	4b-\	-qui-	4G/	.	4g\	.	4C/	4g/	.	4b-\	.
=14	=14	=14	=14	=14	=14	=14	=14	=14	=14	=14	=14	=14	=14	=14	=14	=14
!	!	!	!	!	!	!	!	!	!	!	!	!	!	!	!	!LO:DY:a
1F	-em	1f	-em	2f\	-em	1an	-em	4r	.	4f\	.	4FF/	4a\	.	4ff\	f
.	.	.	.	.	.	.	.	4f\	.	4f\	.	4F\	4c/	.	4a\	p
.	.	.	.	2f\	.	.	.	4f\	.	4f\	.	4F\	4c/	.	4a\	.
.	.	.	.	.	.	.	.	4f\	.	4f\	.	4F\	4c/	.	4a\	.
=15	=15	=15	=15	=15	=15	=15	=15	=15	=15	=15	=15	=15	=15	=15	=15	=15
1G	Do-	1c	Do-	1an	Do-	1ee-	Do-	4f\	.	4f\	.	4FF/	4a\	.	4f/	f
.	.	.	.	.	.	.	.	4f\	.	4f\	.	4F\	4cc\	.	4ee-\	p
.	.	.	.	.	.	.	.	4f\	.	4f\	.	4F\	4cc\	.	4ee-\	.
.	.	.	.	.	.	.	.	4f\	.	4f\	.	4F\	4cc\	.	4ee-\	.
=16	=16	=16	=16	=16	=16	=16	=16	=16	=16	=16	=16	=16	=16	=16	=16	=16
!	!	!	!	!	!	!	!	!	!	!	!	!	!	!	!	!LO:DY:a
1B-	-na	1B-	-na	1f	-na	1dd	-na	4B-/	.	4f\	.	4BBB-/	4dd\	.	4bb-\	f
.	.	.	.	.	.	.	.	4B-/	.	4f\	.	4BB-/	4f/	.	4dd\	p
.	.	.	.	.	.	.	.	4B-/	.	4f\	.	4BB-/	4f/	.	4dd\	.
.	.	.	.	.	.	.	.	4B-/	.	4f\	.	4BB-/	4f/	.	4dd\	.
=17	=17	=17	=17	=17	=17	=17	=17	=17	=17	=17	=17	=17	=17	=17	=17	=17
2.E-\	e-	2c\	e-	2g\	e-	2cc\	e-	2e-\	.	2g\	.	2EE-/	2g/	.	2cc\	.
.	.	4c\	-js	4e-\	.	8gg\L	-js	4r	.	4r	.	4r	8r	.	8gg\L	.
.	.	.	.	.	.	8ee-\	.	.	.	.	.	.	8g/L	.	8ee-\	.
!	!	!LO:TX:a:Bi:t=3 vicibus repetitur	!	!LO:TX:a:Bi:t=3 vicibus repetitur	!	!	!	!	!	!	!	!	!	!	!	!
4E-\	-is	4e-\	.	4g\	-is	8dd\	.	4e-\	.	4g\	.	4E-\	8f/	.	8dd\	.
.	.	.	.	.	.	8cc\J	.	.	.	.	.	.	8e-/J	.	8cc\J	.
=18	=18	=18	=18	=18	=18	=18	=18	=18	=18	=18	=18	=18	=18	=18	=18	=18
!LO:TX:a:Bi:t=3 vicibus repetitur	!	!	!	!	!	!	!	!	!	!	!	!	!	!	!	!
2.F\	Re-	2d\	Re-	2.f\	Re-	2b-\	Re-	2f\	.	2f\	.	4F\	8F/L	.	2b-\	.
.	.	.	.	.	.	.	.	.	.	.	.	.	8d/	.	.	.
.	.	.	.	.	.	.	.	.	.	.	.	4F\	8B-/	.	.	.
.	.	.	.	.	.	.	.	.	.	.	.	.	8d/J	.	.	.
!	!	!	!	!	!	!LO:TX:a:Bi:t=3 vicibus repetitur	!	!	!	!	!	!	!	!	!	!
.	.	4c\	-qui-	.	.	4an\	-qui-	2f\	.	2f\	.	4FF/	8F/L	.	2cc\	.
!	!	!	!	!	!	!	!	!	!	!	!	!	!LO:TX:b:t=f	!	!	!
.	.	.	.	.	.	.	.	.	.	.	.	.	8e-/	.	.	.
!	!	!	!	!	!	!	!	!	!	!	!	!	!LO:TX:b:t=d	!	!	!
4F\	-qui-	4c\	.	4f\	-qui-	4a\	.	.	.	.	.	4FF/	8c/	.	.	.
!	!	!	!	!	!	!	!	!	!	!	!	!	!LO:TX:b:t=f	!	!	!
.	.	.	.	.	.	.	.	.	.	.	.	.	8e-/J	.	.	.
=19	=19	=19	=19	=19	=19	=19	=19	=19	=19	=19	=19	=19	=19	=19	=19	=19
2BB-/	-em	2d\	-em	2f\	-em	2b-\	-em	2B-/	.	2f\	.	2BB-/	2d/	.	2b-\	.
2r	.	2r	.	2r	.	2r	.	2r	.	2r	.	2r	8dd\L	.	8ff\L	.
.	.	.	.	.	.	.	.	.	.	.	.	.	8ee-\	.	8gg\	.
.	.	.	.	.	.	.	.	.	.	.	.	.	8dd\	.	8ff\	.
.	.	.	.	.	.	.	.	.	.	.	.	.	8ee-\J	.	8gg\J	.
=20	=20	=20	=20	=20	=20	=20	=20	=20	=20	=20	=20	=20	=20	=20	=20	=20
!LO:TX:a:t=7	!	!	!	!LO:TX:a:t=7	!	!LO:TX:a:t=7	!	!	!	!	!	!	!	!	!	!
00r	.	00r	.	00r	.	00r	.	4r	.	4r	.	8r	4.dd\	.	4.ff\	.
.	.	.	.	.	.	.	.	.	.	.	.	8BB-\L	.	.	.	.
.	.	.	.	.	.	.	.	4B-/	.	4f\	.	8D\	.	.	.	.
.	.	.	.	.	.	.	.	.	.	.	.	8F\J	8cc\	.	8ee-\	.
.	.	.	.	.	.	.	.	4B-/	.	4f\	.	8B-\L	4b-\	.	4dd\	.
.	.	.	.	.	.	.	.	.	.	.	.	8F\	.	.	.	.
.	.	.	.	.	.	.	.	4r	.	4r	.	8D\	4b-\	.	4dd\	.
.	.	.	.	.	.	.	.	.	.	.	.	8F\J	.	.	.	.
=21	=21	=21	=21	=21	=21	=21	=21	=21	=21	=21	=21	=21	=21	=21	=21	=21
.	.	.	.	.	.	.	.	4B-/	.	4f\	.	4BB-/	4b-\	.	4dd\	.
.	.	.	.	.	.	.	.	4e-\	.	4g\	.	4E-\	8g/L	.	8ee-\L	.
.	.	.	.	.	.	.	.	.	.	.	.	.	8e-/J	.	8cc\J	.
.	.	.	.	.	.	.	.	4f\	.	4f\	.	4F\	4d/	.	4b-\	.
.	.	.	.	.	.	.	.	4f\	.	4f\	.	4FF/	4c/	.	4a\	.
=22	=22	=22	=22	=22	=22	=22	=22	=22	=22	=22	=22	=22	=22	=22	=22	=22
.	.	.	.	.	.	.	.	4B-/	.	4f\	.	4BB-/	4d/	.	4.b-\	.
.	.	.	.	.	.	.	.	4r	.	4r	.	4r	4r	.	.	.
.	.	.	.	.	.	.	.	.	.	.	.	.	.	.	8bb-\	.
.	.	.	.	.	.	.	.	2r	.	2r	.	2r	8dd\L	.	8ff\L	.
.	.	.	.	.	.	.	.	.	.	.	.	.	8ee-\	.	8gg\	.
.	.	.	.	.	.	.	.	.	.	.	.	.	8dd\	.	8ff\	.
.	.	.	.	.	.	.	.	.	.	.	.	.	8ee-\J	.	8gg\J	.
=23	=23	=23	=23	=23	=23	=23	=23	=23	=23	=23	=23	=23	=23	=23	=23	=23
.	.	.	.	.	.	.	.	4r	.	4r	.	8r	4.dd\	.	4.ff\	.
.	.	.	.	.	.	.	.	.	.	.	.	8BB-\L	.	.	.	.
.	.	.	.	.	.	.	.	4B-/	.	4f\	.	8D\	.	.	.	.
.	.	.	.	.	.	.	.	.	.	.	.	8F\J	8cc\	.	8ee-\	.
.	.	.	.	.	.	.	.	4B-/	.	4f\	.	8B-\L	4b-\	.	4dd\	.
.	.	.	.	.	.	.	.	.	.	.	.	8F\	.	.	.	.
.	.	.	.	.	.	.	.	4r	.	4r	.	8D\	4b-\	.	4dd\	.
.	.	.	.	.	.	.	.	.	.	.	.	8F\J	.	.	.	.
=24	=24	=24	=24	=24	=24	=24	=24	=24	=24	=24	=24	=24	=24	=24	=24	=24
!	!	!	!	!	!	!	!	!	!	!LO:TX:a:Bi:t=tribus vicibus repet&colon;	!	!	!	!	!	!
0r	.	0r	.	0r	.	0r	.	4B-/	.	4f\	.	4BB-/	4b-\	.	8dd\L	.
.	.	.	.	.	.	.	.	.	.	.	.	.	.	.	8ff\	.
.	.	.	.	.	.	.	.	4e-\	.	4g\	.	4E-\	8g/L	.	8ee-\	.
.	.	.	.	.	.	.	.	.	.	.	.	.	8e-/J	.	8cc\J	.
.	.	.	.	.	.	.	.	4f\	.	4f\	.	4F\	4d/	.	4b-\	.
.	.	.	.	.	.	.	.	4f\	.	4f\	.	4FF/	4c/	.	4a\	.
=25	=25	=25	=25	=25	=25	=25	=25	=25	=25	=25	=25	=25	=25	=25	=25	=25
!	!	!	!	!	!	!	!	!	!	!	!	!LO:TX:b:t=3 vicibu Repetitur	!	!	!	!
.	.	.	.	.	.	.	.	2B-/	.	2f\	.	4BB-/	2d/	.	2b-\	.
.	.	.	.	.	.	.	.	.	.	.	.	4B-\	.	.	.	.
.	.	.	.	.	.	.	.	2r	.	2r	.	2r	8b-\L	.	8dd\L	.
.	.	.	.	.	.	.	.	.	.	.	.	.	8cc\	.	8ee-\	.
.	.	.	.	.	.	.	.	.	.	.	.	.	8dd\	.	8ff\	.
.	.	.	.	.	.	.	.	.	.	.	.	.	8ee-\J	.	8gg\J	.
=26	=26	=26	=26	=26	=26	=26	=26	=26	=26	=26	=26	=26	=26	=26	=26	=26
1r	.	1r	.	1r	.	1r	.	4r	.	4r	.	4r	4ff\	.	4aa-X\	.
.	.	.	.	.	.	.	.	4B-/	.	4f\	.	4BB-/	4f/	.	4a-/	.
.	.	.	.	.	.	.	.	4B-/	.	4f\	.	4BB-/	4f/	.	4a-/	.
!	!	!	!	!	!	!	!	!LO:TX:t=P:problem=brak znaku repetycji	!	!	!	!	!	!	!	!
.	.	.	.	.	.	.	.	4B-/	.	4f\	.	4BB-/	4f/	.	4a-/	.
=27:|!	=27:|!	=27:|!	=27:|!	=27:|!	=27:|!	=27:|!	=27:|!	=27:|!	=27:|!	=27:|!	=27:|!	=27:|!	=27:|!	=27:|!	=27:|!	=27:|!
*>B	*	*>B	*	*>B	*	*>B	*	*>B	*	*>B	*	*>B	*>B	*	*>B	*
!	!	!	!	!	!	!	!	!	!	!	!	!	!	!LO:DY:a	!	!
2.E-\	Sem-	2.B-\	Sem-	2.e-\	Sem-	2.g\	Sem-	4r	.	4r	.	4EE-/	4g/	f	4ee-\	f
!	!	!	!	!	!	!	!	!	!	!	!	!	!	!LO:DY:a	!	!
.	.	.	.	.	.	.	.	4e-\	.	4g\	.	4E-\	4e-/	p	4g/	p
.	.	.	.	.	.	.	.	4e-\	.	4g\	.	4E-\	4e-/	.	4g/	.
4E-\	-pi-	4B-\	-pi-	4e-\	-pi-	4g\	-pi-	4e-\	.	4g\	.	4E-\	4e-/	.	4g/	.
=28	=28	=28	=28	=28	=28	=28	=28	=28	=28	=28	=28	=28	=28	=28	=28	=28
!	!	!	!	!	!	!	!	!	!	!	!	!	!	!LO:DY:a	!	!
1AAn	-ter-	1c	-ter-	1e-	-ter-	1g	-ter-	4r	.	4r	.	4AAn/	4g/	f	4ee-\	f
!	!	!	!	!	!	!	!	!	!	!	!	!	!	!LO:DY:a	!	!
.	.	.	.	.	.	.	.	4e-\	.	4g\	.	4AA/	4e-/	p	4g/	p
.	.	.	.	.	.	.	.	4e-\	.	4g\	.	4AA/	4e-/	.	4g/	.
.	.	.	.	.	.	.	.	4e-\	.	4g\	.	4AA/	4e-/	.	4g/	.
=29	=29	=29	=29	=29	=29	=29	=29	=29	=29	=29	=29	=29	=29	=29	=29	=29
2BB-/	-nam	2d\	-nam	2d\	-nam	2f/	-nam	2B-/	.	2f\	.	2BB-/	2d/	.	2f/	.
2r	.	2r	.	2r	.	2r	.	2r	.	4r	.	2r	2r	.	4b-\	.
.	.	.	.	.	.	.	.	.	.	4r	.	.	.	.	4b-\	.
=30	=30	=30	=30	=30	=30	=30	=30	=30	=30	=30	=30	=30	=30	=30	=30	=30
*	*	*	*ij	*	*	*	*ij	*	*	*	*	*	*	*	*	*
2.C/	Sem-	2.F/	Sem-	2.e-\	Sem-	2.an\	Sem-	4r	.	4r	.	4r	8F/L	.	4ee-\	f
.	.	.	.	.	.	.	.	.	.	.	.	.	8e-/J	.	.	.
.	.	.	.	.	.	.	.	4f\	.	4f\	.	4C/	4e-/	.	4a\	p
.	.	.	.	.	.	.	.	4f\	.	4f\	.	4C/	4e-/	.	4a\	.
4C/	-pi-	4F/	-pi-	4e-\	-pi-	4a\	-pi-	4f\	.	4f\	.	4C/	4e-/	.	4a\	.
=31	=31	=31	=31	=31	=31	=31	=31	=31	=31	=31	=31	=31	=31	=31	=31	=31
!	!	!	!	!	!	!LO:SIC:v:s=1bn	!	!	!	!	!	!	!	!	!	!
1C	-ter-	1F	-ter-	1e-	-ter-	1a-	-ter-	4r	.	4r	.	4r	4F/	.	4ee-\	f
!	!	!	!	!	!	!	!	!	!	!	!	!	!	!	!LO:SIC:v:s=4bn	!
.	.	.	.	.	.	.	.	4f\	.	4f\	.	4C/	4e-/	.	4a-\	p
!	!	!	!	!	!	!	!	!	!	!	!	!	!	!	!LO:SIC:v:s=4bn	!
.	.	.	.	.	.	.	.	4f\	.	4f\	.	4C/	4e-/	.	4a-\	.
!	!	!	!	!	!	!	!	!	!	!	!	!	!	!	!LO:SIC:v:s=4bn	!
.	.	.	.	.	.	.	.	4f\	.	4f\	.	4C/	4e-/	.	4a-\	.
=32	=32	=32	=32	=32	=32	=32	=32	=32	=32	=32	=32	=32	=32	=32	=32	=32
2BB-/	-nam	2F/	-nam	2d\	-nam	2b-\	-nam	2B-/	.	2f\	.	2BB-/	2d/	.	2b-\	.
*	*	*	*Xij	*	*	*	*Xij	*	*	*	*	*	*	*	*	*
!LO:TX:t=P:problem=w źródle pojedyncza kreska taktowa	!	!LO:TX:t=P:problem=w źródle pojedyncza kreska taktowa	!	!	!	!	!	!	!	!	!	!	!LO:TX:t=P:problem=mixed beam	!	!	!
2r	.	2r	.	2r	.	2r	.	2r	.	2r	.	2r	8d/L	.	(8b-\L	.
.	.	.	.	.	.	.	.	.	.	.	.	.	8b-/J	.	8dd\	.
.	.	.	.	.	.	.	.	.	.	.	.	.	8a\L	.	8cc\	.
.	.	.	.	.	.	.	.	.	.	.	.	.	8cc\J	.	8ee-\J)	.
==	==	==	==	==	==	==	==	==	==	==	==	==	==	==	==	==
*-	*-	*-	*-	*-	*-	*-	*-	*-	*-	*-	*-	*-	*-	*-	*-	*-
!!title: @{OTL};
!!!RDF**kern: > = above
!!!RDF**kern: < = below
!!!RDF**kern: | = vertical stroke
!!!RDF**kern: N = linked
!!!RDF**kern: i = editorial accidental
!!!RDF**kern: l = terminal long
!!!ENC: Katarzyna Serwa
!!!END: 2020-09-25
!!!EED: Wojciech Jakubiak-Danek
!!!EST: 2022-01-31
!!!URL-scan: http://repozytorium.nifc.pl/skany/pl-cz-nut--iii-555
!!!ONB-nifc: UWAGA: części Requiem: Requiem, Kyrie, Dies irae, Qui Mariam, Domine Jesu Christe, Sanctus, Pleni sunt, Benedictus, Agnus Dei, Lux aeterna
